X:1433
T:Bigordino
C:La Piva dal Carnèr: La pegra 2b
M:6/8
L:1/8
K:G
G2A|BAB dcA|B2G G2A|Bed cBA|G3:|
|:GFG|E2A A2G|FED GFG|E2E FEF|GFG GFG|\
E2A A2G|FED GFG|E2E FEF|G3:|


